assets/Fire engine/Flat/fire_engine_flat.svg

<svg width="32" height="32" viewBox="0 0 32 32" fill="none" xmlns="http://www.w3.org/2000/svg">
<path d="M30 9.5C30 9.22386 29.7761 9 29.5 9H13.5C13.2239 9 13 9.22386 13 9.5V9.5C13 9.77614 13.2239 10 13.5 10H14V13H13.5C13.2239 13 13 13.2239 13 13.5V13.5C13 13.7761 13.2239 14 13.5 14H29.5C29.7761 14 30 13.7761 30 13.5V13.5C30 13.2239 29.7761 13 29.5 13H27.2C27.0895 13 27 12.9105 27 12.8V10.2C27 10.0895 27.0895 10 27.2 10H29.5C29.7761 10 30 9.77614 30 9.5V9.5ZM18 10.2V12.8C18 12.9105 17.9105 13 17.8 13H15.2C15.0895 13 15 12.9105 15 12.8V10.2C15 10.0895 15.0895 10 15.2 10H17.8C17.9105 10 18 10.0895 18 10.2ZM19 10.1C19 10.0448 19.0448 10 19.1 10H21.9C21.9552 10 22 10.0448 22 10.1V12.8C22 12.9105 21.9105 13 21.8 13H19.2C19.0895 13 19 12.9105 19 12.8V10.1ZM26 10.2V12.8C26 12.9105 25.9105 13 25.8 13H23.2C23.0895 13 23 12.9105 23 12.8V10.2C23 10.0895 23.0895 10 23.2 10H25.8C25.9105 10 26 10.0895 26 10.2Z" fill="#D3D3D3"/>
<path d="M4.9 18H2.31L2.16 19L16.08 20L30 19V15.6901C30 14.7545 29.24 14 28.31 14H14V8.76999C14 7.78999 13.2 6.98999 12.22 6.98999H5.21C4.51 6.98999 3.92 7.49999 3.82 8.18999L3.69 8.99999H4.9C5.5 8.99999 6 9.48999 6 10.1V16.9C6 17.51 5.5 18 4.9 18ZM28.31 27H12.23H12H3.78C2.8 27 2 26.2 2 25.22V20.9H30V25.31C30 26.24 29.24 27 28.31 27Z" fill="#F8312F"/>
<path d="M2.12 19.21C2.05 19.65 2.01 20.1 2 20.55V21H30V19H2.15L2.12 19.21Z" fill="#F4F4F4"/>
<path d="M10.41 6H7.59C7.27 6 7 6.26 7 6.59V7H11V6.59C11 6.26 10.74 6 10.41 6Z" fill="#9B9B9B"/>
<path d="M10 5C10 4.45 9.55 4 9 4C8.45 4 8 4.45 8 5V6H10V5Z" fill="#F92F60"/>
<path d="M12 26.5C12 28.433 10.433 30 8.5 30C6.567 30 5 28.433 5 26.5C5 24.567 6.567 23 8.5 23C10.433 23 12 24.567 12 26.5ZM27 26.5C27 28.433 25.433 30 23.5 30C21.567 30 20 28.433 20 26.5C20 24.567 21.567 23 23.5 23C25.433 23 27 24.567 27 26.5Z" fill="#321B41"/>
<path d="M10 26.5C10 27.3284 9.32843 28 8.5 28C7.67157 28 7 27.3284 7 26.5C7 25.6716 7.67157 25 8.5 25C9.32843 25 10 25.6716 10 26.5ZM25 26.5C25 27.3284 24.3284 28 23.5 28C22.6716 28 22 27.3284 22 26.5C22 25.6716 22.6716 25 23.5 25C24.3284 25 25 25.6716 25 26.5Z" fill="#F4F4F4"/>
<path d="M6 16.9C6 17.51 5.5 18 4.9 18H2.31L3.69 9H4.9C5.5 9 6 9.49 6 10.1V16.9ZM8 9C7.44772 9 7 9.44772 7 10V17C7 17.5523 7.44772 18 8 18H11C11.5523 18 12 17.5523 12 17V10C12 9.44772 11.5523 9 11 9H8Z" fill="#26C9FC"/>
<path d="M3 23C3 22.4477 2.55228 22 2 22V25C2.55228 25 3 24.5523 3 24V23ZM29 22C28.4477 22 28 22.4477 28 23C28 23.5523 28.4477 24 29 24H30V22H29Z" fill="#FCD53F"/>
</svg>

<svg xmlns="http://www.w3.org/2000/svg" width="32" height="32" fill="none"><path fill="#D3D3D3" d="M30 9.5a.5.5 0 0 0-.5-.5h-16a.5.5 0 0 0 0 1h.5v3h-.5a.5.5 0 0 0 0 1h16a.5.5 0 0 0 0-1h-2.3a.2.2 0 0 1-.2-.2v-2.6c0-.11.09-.2.2-.2h2.3a.5.5 0 0 0 .5-.5Zm-12 .7v2.6a.2.2 0 0 1-.2.2h-2.6a.2.2 0 0 1-.2-.2v-2.6c0-.11.09-.2.2-.2h2.6c.11 0 .2.09.2.2Zm1-.1a.1.1 0 0 1 .1-.1h2.8a.1.1 0 0 1 .1.1v2.7a.2.2 0 0 1-.2.2h-2.6a.2.2 0 0 1-.2-.2v-2.7Zm7 .1v2.6a.2.2 0 0 1-.2.2h-2.6a.2.2 0 0 1-.2-.2v-2.6c0-.11.09-.2.2-.2h2.6c.11 0 .2.09.2.2Z"/><path fill="#F8312F" d="M4.9 18H2.31l-.15 1 13.92 1L30 19v-3.31c0-.935-.76-1.69-1.69-1.69H14V8.77c0-.98-.8-1.78-1.78-1.78H5.21c-.7 0-1.29.51-1.39 1.2L3.69 9H4.9c.6 0 1.1.49 1.1 1.1v6.8c0 .61-.5 1.1-1.1 1.1Zm23.41 9H3.78C2.8 27 2 26.2 2 25.22V20.9h28v4.41c0 .93-.76 1.69-1.69 1.69Z"/><path fill="#F4F4F4" d="M2.12 19.21c-.07.44-.11.89-.12 1.34V21h28v-2H2.15l-.03.21Z"/><path fill="#9B9B9B" d="M10.41 6H7.59c-.32 0-.59.26-.59.59V7h4v-.41c0-.33-.26-.59-.59-.59Z"/><path fill="#F92F60" d="M10 5c0-.55-.45-1-1-1s-1 .45-1 1v1h2V5Z"/><path fill="#321B41" d="M12 26.5a3.5 3.5 0 1 1-7 0 3.5 3.5 0 0 1 7 0Zm15 0a3.5 3.5 0 1 1-7 0 3.5 3.5 0 0 1 7 0Z"/><path fill="#F4F4F4" d="M10 26.5a1.5 1.5 0 1 1-3 0 1.5 1.5 0 0 1 3 0Zm15 0a1.5 1.5 0 1 1-3 0 1.5 1.5 0 0 1 3 0Z"/><path fill="#26C9FC" d="M6 16.9c0 .61-.5 1.1-1.1 1.1H2.31l1.38-9H4.9c.6 0 1.1.49 1.1 1.1v6.8ZM8 9a1 1 0 0 0-1 1v7a1 1 0 0 0 1 1h3a1 1 0 0 0 1-1v-7a1 1 0 0 0-1-1H8Z"/><path fill="#FCD53F" d="M3 23a1 1 0 0 0-1-1v3a1 1 0 0 0 1-1v-1Zm26-1a1 1 0 1 0 0 2h1v-2h-1Z"/></svg>
